packages/icons/svg/24/ShareIos.svg

<svg width="24" height="24" viewBox="0 0 24 24" fill="none" xmlns="http://www.w3.org/2000/svg">
<path d="M12 2.58582L7.29289 7.29292C6.90237 7.68345 6.90237 8.31661 7.29289 8.70714C7.68342 9.09766 8.31658 9.09766 8.70711 8.70714L11 6.41424V13C11 13.5523 11.4477 14 12 14C12.5523 14 13 13.5523 13 13V6.41424L15.2929 8.70714C15.6834 9.09766 16.3166 9.09766 16.7071 8.70714C17.0976 8.31661 17.0976 7.68345 16.7071 7.29292L12 2.58582Z" fill="#858585"/>
<path d="M6 18V12H4V18C4 19.6569 5.34315 21 7 21H17C18.6569 21 20 19.6569 20 18V12H18V18C18 18.5523 17.5523 19 17 19H7C6.44772 19 6 18.5523 6 18Z" fill="#858585"/>
</svg>

<svg width="24" height="24" fill="none" xmlns="http://www.w3.org/2000/svg" viewBox="0 0 24 24"><path d="M12 2.586L7.293 7.293a1 1 0 001.414 1.414L11 6.414V13a1 1 0 102 0V6.414l2.293 2.293a1 1 0 101.414-1.414L12 2.586z" fill="currentColor"></path><path d="M6 18v-6H4v6a3 3 0 003 3h10a3 3 0 003-3v-6h-2v6a1 1 0 01-1 1H7a1 1 0 01-1-1z" fill="currentColor"></path></svg>
